X: 107
T: Speed the Plough
C: R-49
C: British Isles
M: C|
Z: Transcribed to abc by Mary Lou Knack
R: reel
K: A
(3EFG| "A"ABcd efec| eaec efec| "D"dfdB "A"cecA| "Bm"Bcdc "E7"BGEG|
       "A"ABcd efec| eaec efec| "D"dece "A"BeAe| "E7"EGBG "A"A2 :|
|:\
(3efg| "A"a2 (3bag aAce| a2gf ecAc| "D"dfdB "A"cecA| "Bm"Bcdc "E7"BGEG|
       "A"(3cBA eA fAeA| "D"fgaf "A"ecAc| "D"dece "A"BeAe| "E7"EGBG "A"A2 :|
%%text 9/1/98
% ---------- page 55 ----------
